src/icons/main-view.svg

<svg enable-background="new 0 0 14 9" viewBox="0 0 14 9" xmlns="http://www.w3.org/2000/svg"><path d="m7 3.5c-.5 0-.9.4-.9.9s.4.9.9.9.9-.4.9-.9-.4-.9-.9-.9zm7 .9c0-.1 0-.1 0 0 0-.2-.1-.3-.1-.4-.4-.6-1-1.1-1.5-1.6-1.2-1-2.5-1.9-4-2.2-.9-.2-1.7-.3-2.6-.1-.8.2-1.5.5-2.2.9-1.1.6-2.1 1.5-3 2.4-.2.2-.3.4-.5.6-.1.2-.1.5 0 .8.4.6 1 1.1 1.5 1.6 1.2 1 2.5 1.9 4 2.2.8.2 1.7.2 2.6 0 .8-.1 1.5-.4 2.2-.8 1.1-.6 2.1-1.5 3-2.4.2-.2.3-.4.5-.6 0-.1.1-.2.1-.3 0-.1 0-.1 0-.1zm-7 2.6c-1.4 0-2.6-1.2-2.6-2.6s1.2-2.7 2.6-2.7 2.6 1.2 2.6 2.6-1.1 2.7-2.6 2.7z" fill="#4d5969"/></svg>

<?xml version="1.0" encoding="utf-8"?>
<!-- Generator: Adobe Illustrator 20.1.0, SVG Export Plug-In . SVG Version: 6.00 Build 0)  -->
<svg version="1.1" id="Layer_1" xmlns="http://www.w3.org/2000/svg" xmlns:xlink="http://www.w3.org/1999/xlink" x="0px" y="0px"
	 viewBox="0 0 14 9" style="enable-background:new 0 0 14 9;" xml:space="preserve">
<style type="text/css">
	.st0{fill:#4D5969;}
</style>
<title>HDL/Icon/Standard/view</title>
<desc>Created with Sketch.</desc>
<g id="Colors">
	<g id="Main-Icons" transform="translate(-1122.000000, -1163.000000)">
		<g id="View" transform="translate(1100.000000, 1153.000000)">
			<g id="HDL_x2F_Icon_x2F_Standard_x2F_view" transform="translate(22.000000, 10.000000)">
				<path id="Shape" class="st0" d="M7,3.5c-0.5,0-0.9,0.4-0.9,0.9S6.5,5.3,7,5.3s0.9-0.4,0.9-0.9S7.5,3.5,7,3.5z M14,4.4
					C14,4.3,14,4.3,14,4.4L14,4.4C14,4.3,14,4.3,14,4.4C14,4.3,14,4.3,14,4.4L14,4.4c0-0.2-0.1-0.3-0.1-0.4c-0.4-0.6-1-1.1-1.5-1.6
					c-1.2-1-2.5-1.9-4-2.2C7.5,0,6.7-0.1,5.8,0.1C5,0.3,4.3,0.6,3.6,1c-1.1,0.6-2.1,1.5-3,2.4C0.4,3.6,0.3,3.8,0.1,4
					C0,4.2,0,4.5,0.1,4.8c0.4,0.6,1,1.1,1.5,1.6c1.2,1,2.5,1.9,4,2.2c0.8,0.2,1.7,0.2,2.6,0C9,8.5,9.7,8.2,10.4,7.8
					c1.1-0.6,2.1-1.5,3-2.4c0.2-0.2,0.3-0.4,0.5-0.6C13.9,4.7,14,4.6,14,4.5l0,0C14,4.4,14,4.4,14,4.4C14,4.4,14,4.4,14,4.4L14,4.4
					C14,4.4,14,4.4,14,4.4C14,4.4,14,4.4,14,4.4C14,4.4,14,4.4,14,4.4z M7,7C5.6,7,4.4,5.8,4.4,4.4S5.6,1.7,7,1.7s2.6,1.2,2.6,2.6
					S8.5,7,7,7z"/>
			</g>
		</g>
	</g>
</g>
</svg>
